google-analytics-for-wordpress/lite/assets/vue/img/monsterinsights-addons-upsell-logo.svg

<svg width="200" height="200" viewBox="0 0 200 200" fill="none" xmlns="http://www.w3.org/2000/svg">
<path d="M17.9672 177.122L55.0276 183.499L49.4435 215.949L13.0688 209.69C7.77331 206.149 3.62079 201.748 0.925931 196.891C3.43578 190.14 10.0296 181.847 17.9618 177.153L17.9672 177.122Z" fill="#6F4BBB"/>
<path d="M19.6514 180.23C13.8528 184.459 7.96091 189.794 5.10859 196.486C7.46961 200.483 10.8006 203.877 14.577 206.548L45.7467 211.912L50.2912 185.503L19.6514 180.23Z" fill="#7D5DC2"/>
<path d="M9.18137 189.781C7.97998 190.985 5.23344 196.124 5.08132 196.451C7.44234 200.448 10.7734 203.843 14.5497 206.513L31.1631 209.372L33.5961 195.233C25.378 193.755 17.2558 191.909 9.15576 189.744L9.18137 189.781Z" fill="#9478CF"/>
<path d="M99.5081 191.151L62.4478 184.774L56.8636 217.225L93.2383 223.484C99.4127 221.917 104.798 219.157 108.961 215.48C108.852 208.278 105.41 198.259 99.5027 191.183L99.5081 191.151Z" fill="#6F4BBB"/>
<path d="M96.9238 193.527C100.976 199.451 104.746 206.448 105.197 213.709C101.635 216.687 97.3611 218.773 92.9093 220.028L61.7401 214.664L66.2847 188.255L96.9238 193.527Z" fill="#7D5DC2"/>
<path d="M12.6357 110.951L-1.3299 192.108C-15.6875 191.434 -31.9549 188.057 -42.1254 177.04C-40.6053 169.51 -38.618 162.253 -36.0355 155.451C-31.3188 143.148 -24.52 132.358 -14.5529 124.229C-5.78067 117.081 2.26643 114.329 12.6411 110.919L12.6357 110.951Z" fill="#6F4BBB"/>
<path d="M-37.8163 175.857C-31.4299 182.759 -14.151 187.528 -4.69507 187.969L7.54495 116.839C-18.5122 125.406 -32.0117 147.163 -37.8163 175.857Z" fill="#9478CF"/>
<path d="M15.3283 46.2579C15.5242 35.4217 18.2433 30.2465 22.0817 20.9985C27.8241 27.7262 31.4337 32.4838 38.8924 38.0002C42.2657 28.0951 47.5482 19.0318 54.3645 10.9383L58.3979 6.14898C68.813 17.2407 77.793 26.2247 83.6267 39.5093C93.5959 28.9441 105.037 23.4417 118.555 16.5008L120.755 22.3629C124.474 32.2693 126.423 42.577 126.292 53.0399C135.165 50.334 140.158 47.0567 147.819 42.6354C148.35 52.6029 149.184 58.39 145.741 68.6994L159.844 75.3266C150.243 113.403 141.597 145.744 131.217 183.686C129.771 188.921 128.325 194.154 126.847 199.383C126.429 200.882 124.087 203.301 116.154 202.032C77.1212 197.977 36.7255 191.026 -1.41712 181.8C-9.28668 180.35 -10.6854 177.288 -10.6096 175.73C-10.2392 170.214 -9.86708 164.698 -9.46464 159.189C-9.30202 156.941 -9.13978 154.691 -8.97782 152.443C-6.30302 117.503 -3.54586 82.6423 -0.272579 47.7737L15.2341 46.2417L15.3283 46.2579Z" fill="#6F4BBB"/>
<path d="M58.6262 14.5253C50.4027 24.2687 44.8774 35.1179 42.16 46.8032C36.0071 43.2108 29.2173 37.9065 23.7393 31.5129C21.438 37.0485 20.4275 44.6025 21.0787 51.448C15.472 51.7657 10.2023 52.1744 4.93243 52.7735C1.55137 88.65 -1.98657 124.5 -4.60346 160.409C-4.866 163.988 -5.41524 171.654 -5.64664 175.237C-4.37813 176.257 -1.44803 176.761 -0.243087 177.032C38.118 186.295 77.4228 193.058 116.674 197.151C117.905 197.267 120.835 197.771 122.366 197.266C123.33 193.904 125.407 186.309 126.339 182.942C135.881 148.191 144.531 113.222 153.33 78.3099C148.564 75.9837 143.734 73.837 138.556 71.6635C141.458 65.4296 143.03 57.9722 142.713 51.986C135.443 56.1858 127.24 58.9102 120.24 60.2392C121.585 48.3178 120.004 36.2457 115.51 24.314C100.825 31.8875 91.1247 37.5288 81.6941 50.5594C77.1294 35.1205 69.9045 26.5668 58.5635 14.5145L58.6262 14.5253Z" fill="#9478CF"/>
<path d="M58.6208 14.5259C56.8753 30.4506 57.8278 48.6027 63.9916 57.1666C54.2364 54.3657 49.1671 52.3067 42.1547 46.8038C36.0017 43.2114 29.2119 37.9071 23.7339 31.5135C25.4089 42.4789 27.4682 50.4648 33.0513 58.8643C27.2752 57.742 24.2672 55.2691 21.0734 51.4486C15.4667 51.7662 10.197 52.175 4.92709 52.7741C1.54603 88.6506 -1.99191 124.5 -4.60881 160.41C-4.87134 163.989 -5.42058 171.655 -5.65199 175.238C-4.38348 176.258 -1.45337 176.762 -0.248431 177.033C18.9142 181.677 38.3499 185.663 57.8928 189.026L61.5261 167.912C31.0098 165.097 11.592 112.888 48.6298 87.1329L41.7337 89.5375C41.8171 84.3895 44.4833 78.4041 47.4146 73.6811C53.2585 64.5227 65.4638 59.0554 80.1274 59.8155L81.7245 50.5343C77.161 35.0955 69.9357 26.5411 58.5951 14.4895L58.6208 14.5259Z" fill="#A58DD4"/>
<path d="M124.783 74.65C132.821 68.5944 137.463 61.7617 142.707 51.9864C143.025 57.9732 141.453 65.43 138.551 71.6646C134.264 74.1979 130.601 75.5229 124.783 74.65ZM113.847 69.7545C117.213 70.3338 119.485 73.5462 118.906 76.9097C118.328 80.2732 115.113 82.5415 111.746 81.9622C108.381 81.383 106.109 78.1706 106.688 74.8071C107.266 71.4436 110.481 69.1753 113.847 69.7545ZM133.739 87.3177C136.077 87.7201 137.651 89.9468 137.249 92.2823C136.847 94.6184 134.619 96.191 132.281 95.7887C129.943 95.3864 128.369 93.1595 128.771 90.8234C129.173 88.4879 131.401 86.9154 133.739 87.3177ZM96.2207 62.7131C104.924 56.7076 111.889 39.9179 115.536 24.3205C120.029 36.2521 121.61 48.3241 120.266 60.2451C111.817 63.088 106.351 63.3341 96.2207 62.7131Z" fill="#7D5DC2"/>
<path d="M22.5843 63.1555C28.133 64.1103 31.8496 69.3671 30.8957 74.9105C29.9418 80.4539 24.6818 84.1659 19.1331 83.2111C13.5849 82.2564 9.86835 76.9996 10.8223 71.4562C11.7762 65.9128 17.0361 62.2007 22.5843 63.1555ZM10.8063 92.8084C13.0197 93.1893 14.5164 95.307 14.136 97.5179C13.7554 99.7294 11.637 101.224 9.42364 100.844C7.21082 100.463 5.714 98.3456 6.09456 96.1341C6.47501 93.9232 8.59351 92.4276 10.8063 92.8084Z" fill="#9478CF"/>
<path d="M77.6271 78.2708C101.503 82.3794 117.531 105.05 113.426 128.905C109.321 152.76 86.6371 168.77 62.7611 164.661C38.8851 160.552 22.857 137.882 26.9621 114.026C31.0671 90.171 53.7511 74.1623 77.6271 78.2708Z" fill="#D3E8EF"/>
<path d="M29.7803 104.377C36.3439 88.8007 51.5023 78.2942 68.4611 77.6536C86.5574 79.3569 98.8079 94.3227 95.8872 111.296C92.9451 128.393 75.6858 141.039 57.3652 139.521C39.045 138.004 26.5553 122.932 29.4974 105.835C29.5831 105.337 29.6688 104.839 29.7856 104.346L29.7803 104.377Z" fill="white"/>
<path d="M86.3235 107.181C99.7884 109.498 108.823 122.275 106.508 135.729C104.193 149.182 91.4069 158.205 77.942 155.888C64.4766 153.571 55.4434 140.794 57.7585 127.34C60.0736 113.886 72.8581 104.864 86.3235 107.181Z" fill="#EA4E64"/>
<path d="M86.3258 107.181C89.8795 107.793 93.1173 109.119 95.9358 111.015L95.8875 111.296C93.0204 127.957 76.5678 140.389 58.7326 139.596C57.3999 135.775 57.0008 131.571 57.735 127.304C60.0502 113.85 72.8347 104.828 86.3001 107.145L86.3258 107.181Z" fill="#EC6277"/>
<path d="M84.854 115.715C93.5817 117.217 99.4721 125.509 97.9662 134.26C96.4656 142.98 88.1685 148.863 79.4092 147.356C70.6821 145.854 64.7917 137.562 66.2976 128.81C67.7981 120.091 76.0953 114.207 84.854 115.715Z" fill="#232323"/>
<path d="M84.854 115.715C88.0646 116.267 90.8907 117.747 93.1053 119.796C88.3404 129.397 78.8306 136.546 67.842 138.856C66.3032 135.866 65.6866 132.361 66.2976 128.81C67.7981 120.091 76.0953 114.207 84.854 115.715Z" fill="#323232"/>
<path d="M68.0056 110.314C73.5221 111.263 77.213 116.484 76.2644 121.996C75.3159 127.509 70.0923 131.195 64.5758 130.246C59.0587 129.296 55.3678 124.076 56.3163 118.564C57.2649 113.051 62.4885 109.365 68.0056 110.314Z" fill="white"/>
<path d="M15.9221 132.487C29.3713 127.811 45.8751 142.869 41.2026 161.816C30.0787 156.151 19.3261 142.917 15.9221 132.487Z" fill="#6F4BBB"/>
<path d="M15.9175 132.487C27.0383 134.625 38.3249 143.076 41.1979 161.816C27.4193 157.777 16.2024 144.817 15.9175 132.487Z" fill="#A58DD4"/>
<path d="M18.9904 149.528C20.7388 149.251 28.3797 150.727 28.8582 151.674C29.4351 152.799 26.477 157.678 23.748 160.671C21.3028 157.91 19.5322 154.398 18.9904 149.528Z" fill="#7D5DC2"/>
<path d="M17.0661 147.274C18.815 146.997 26.4555 148.472 26.9344 149.42C27.5106 150.546 24.5533 155.424 21.8238 158.417C19.3785 155.656 17.608 152.144 17.0661 147.274Z" fill="white"/>
<path d="M19.806 144.987C18.4597 155.977 30.8359 168.913 45.0076 167.311C45.2145 170.586 42.7108 172.078 40.4486 172.17C28.0117 171.153 17.5589 161.401 15.3357 150.823C14.7106 147.925 16.5622 144.813 19.8007 145.017L19.806 144.987Z" fill="#6F4BBB"/>
<path d="M13.9916 164.988C16.2588 171.952 21.049 175.822 26.7061 177.822C17.7775 180.101 11.2989 173.92 13.9916 164.988Z" fill="#6F4BBB"/>
<path d="M19.3027 167.508C25.3041 172.356 31.4536 174.665 38.8706 175.203C32.9549 177.874 22.387 176.439 19.3027 167.508Z" fill="#9478CF"/>
<path d="M94.6727 68.5703C85.2458 43.156 47.7411 50.5545 46.8248 77.1388C58.1537 64.0818 75.9499 62.3023 94.6727 68.5703Z" fill="#5F3EA7"/>
<path d="M94.6762 68.5684C89.3475 54.216 73.5645 50.6344 61.6976 55.9992C61.1156 59.0097 61.6703 61.3816 62.9545 63.4307C72.3115 60.7116 83.8845 60.9719 94.7078 68.5738L94.6762 68.5684Z" fill="#6F4BBB"/>
<path d="M149.602 168.574C163.629 170.987 173.252 184.251 170.83 198.328C168.408 212.404 154.935 221.693 140.878 219.274C126.851 216.86 117.228 203.597 119.65 189.52C122.072 175.444 135.545 166.155 149.602 168.574Z" fill="#6F4BBB"/>
<path d="M148.969 172.281C161.031 174.356 169.152 185.726 167.099 197.654C165.047 209.582 153.593 217.582 141.53 215.506C129.468 213.43 121.347 202.062 123.399 190.134C125.452 178.206 136.906 170.205 148.969 172.281Z" fill="#9478CF"/>
<path d="M148.97 172.281C157.541 173.756 164.118 179.922 166.481 187.64C165.32 199.047 150.112 204.992 141.619 199.522C135.456 194.677 132.039 186.747 133.448 178.556C133.679 177.217 134.034 175.9 134.503 174.665C138.753 172.35 143.795 171.391 148.939 172.276L148.97 172.281Z" fill="#A58DD4"/>
<path d="M136.911 189.025C136.418 185.734 148.715 183.842 149.238 187.138L154.808 223.592C155.3 226.884 143.004 228.775 142.48 225.48L136.911 189.025Z" fill="#2B3039"/>
<path d="M154.185 188.409C149.151 190.428 144.871 192.546 141.307 197.223C144.389 202.627 149.081 206.128 154.815 206.377C160.383 201.436 159.119 194.421 154.153 188.404L154.185 188.409Z" fill="#5F3EA7"/>
<path d="M156.376 196.867C156.033 194.756 155.134 192.71 153.854 190.63C149.978 192.271 146.661 194.201 143.874 197.345C146.262 198.013 150.146 198.008 156.381 196.835L156.376 196.867Z" fill="#6F4BBB"/>
<path d="M132.186 200.241C136.706 199.896 140.689 199.877 145.092 202.077C144.78 207.25 142.584 211.618 138.396 213.944C132.384 212.332 130.739 206.598 132.212 200.278L132.186 200.241Z" fill="#5F3EA7"/>
<path d="M139.546 105.406C116.224 102.74 95.148 119.474 92.4857 142.776C89.8233 166.078 106.578 187.142 129.9 189.809C153.221 192.475 174.297 175.741 176.959 152.439C179.621 129.137 162.867 108.073 139.546 105.406Z" fill="#393F4C"/>
<path d="M138.97 110.63C118.542 108.301 100.071 122.951 97.7414 143.391C95.4163 163.802 110.084 182.262 130.541 184.595C150.969 186.924 169.44 172.275 171.77 151.834C174.095 131.424 159.428 112.963 138.97 110.63Z" fill="#D3E8EF"/>
<path d="M159.529 170.571C164.256 165.485 167.477 158.889 168.341 151.438C170.014 136.687 161.931 123.047 149.191 117.072C145.93 129.496 142.669 141.73 139.293 154.263C143.476 156.811 154.023 164.526 159.56 170.577L159.529 170.571Z" fill="white"/>
<path d="M137.738 114.617C119.955 112.583 103.896 125.339 101.897 143.112C101.624 145.63 101.617 148.098 101.911 150.489C101.934 149.98 101.994 149.445 102.054 148.911C104.411 128.314 123.034 113.529 143.653 115.86L143.809 115.886C141.888 115.299 139.846 114.852 137.769 114.622L137.738 114.617Z" fill="white"/>
<path d="M100.043 161.168C100.536 162.407 101.065 163.62 101.668 164.782L115.061 151.664L138.213 166.325L157.809 138.979L171.825 144.245C171.688 142.81 171.482 141.396 171.203 140.034L156.464 134.483L137.245 161.316L114.586 146.964L100.038 161.198L100.043 161.168Z" fill="#999999"/>
<path d="M115.725 141.677C119.944 142.146 122.945 145.965 122.483 150.15C122.013 154.365 118.192 157.364 114.004 156.9C109.784 156.431 106.783 152.611 107.246 148.426C107.715 144.21 111.536 141.212 115.725 141.677Z" fill="#1EC185"/>
<path d="M158.035 129.109C162.255 129.579 165.256 133.398 164.793 137.582C164.324 141.799 160.503 144.797 156.314 144.333C152.095 143.863 149.094 140.043 149.556 135.859C150.026 131.643 153.847 128.645 158.035 129.109Z" fill="#EA4E64"/>
<path d="M138.607 156.197C142.826 156.666 145.827 160.485 145.364 164.67C144.895 168.886 141.074 171.884 136.886 171.419C132.666 170.95 129.665 167.131 130.128 162.946C130.597 158.729 134.418 155.732 138.607 156.197Z" fill="#FF893A"/>
</svg>

<svg xmlns="http://www.w3.org/2000/svg" width="200" height="200" fill="none" viewBox="0 0 200 200"><path fill="#6f4bbb" d="m17.967 177.122 37.06 6.377-5.584 32.45-36.374-6.259c-5.296-3.541-9.448-7.942-12.143-12.799 2.51-6.751 9.104-15.044 17.036-19.738z"/><path fill="#7d5dc2" d="M19.651 180.23c-5.798 4.229-11.69 9.564-14.542 16.256 2.36 3.997 5.692 7.391 9.468 10.062l31.17 5.364 4.544-26.409z"/><path fill="#9478cf" d="M9.181 189.781c-1.201 1.204-3.948 6.343-4.1 6.67 2.361 3.997 5.692 7.392 9.469 10.062l16.613 2.859 2.433-14.139c-8.218-1.478-16.34-3.324-24.44-5.489z"/><path fill="#6f4bbb" d="m99.508 191.151-37.06-6.377-5.584 32.451 36.374 6.259c6.175-1.567 11.56-4.327 15.723-8.004-.109-7.202-3.551-17.221-9.458-24.297z"/><path fill="#7d5dc2" d="M96.924 193.527c4.052 5.924 7.822 12.921 8.273 20.182-3.562 2.978-7.836 5.064-12.288 6.319l-31.169-5.364 4.545-26.409z"/><path fill="#6f4bbb" d="M12.636 110.951-1.33 192.108c-14.357-.674-30.625-4.051-40.795-15.068 1.52-7.53 3.507-14.787 6.09-21.589 4.716-12.303 11.515-23.093 21.482-31.222 8.772-7.148 16.82-9.9 27.194-13.31z"/><path fill="#9478cf" d="M-37.816 175.857c6.386 6.902 23.665 11.671 33.12 12.112l12.24-71.13c-26.056 8.567-39.556 30.324-45.36 59.018"/><path fill="#6f4bbb" d="M15.328 46.258c.196-10.836 2.915-16.012 6.754-25.26 5.742 6.728 9.352 11.486 16.81 17.002 3.374-9.905 8.656-18.968 15.472-27.062l4.034-4.789c10.415 11.092 19.395 20.076 25.229 33.36 9.969-10.565 21.41-16.067 34.928-23.008l2.2 5.862c3.719 9.906 5.668 20.214 5.537 30.677 8.873-2.706 13.866-5.983 21.527-10.405.531 9.968 1.365 15.755-2.078 26.064l14.103 6.628c-9.601 38.076-18.247 70.417-28.627 108.359a2728 2728 0 0 1-4.37 15.697c-.418 1.499-2.76 3.918-10.693 2.649-39.033-4.055-79.428-11.006-117.571-20.232-7.87-1.45-9.268-4.512-9.193-6.07.37-5.516.743-11.032 1.145-16.541l.487-6.746c2.675-34.94 5.432-69.8 8.705-104.67l15.507-1.531z"/><path fill="#9478cf" d="M58.626 14.525C50.403 24.27 44.877 35.118 42.16 46.803c-6.153-3.592-12.943-8.896-18.42-15.29-2.302 5.535-3.312 13.09-2.661 19.935-5.607.318-10.877.726-16.147 1.325C1.552 88.65-1.987 124.5-4.603 160.41c-.263 3.579-.812 11.245-1.044 14.828 1.269 1.02 4.199 1.524 5.404 1.795a895 895 0 0 0 116.917 20.119c1.231.116 4.161.62 5.692.115.964-3.362 3.041-10.957 3.973-14.324 9.542-34.751 18.192-69.72 26.991-104.632-4.766-2.326-9.596-4.473-14.774-6.647 2.902-6.233 4.474-13.69 4.157-19.677-7.27 4.2-15.473 6.924-22.473 8.253 1.345-11.921-.236-23.993-4.73-35.925-14.685 7.573-24.385 13.215-33.816 26.245-4.565-15.438-11.79-23.992-23.13-36.044z"/><path fill="#a58dd4" d="M58.62 14.526c-1.745 15.925-.792 34.077 5.372 42.64-9.756-2.8-14.825-4.86-21.837-10.362-6.153-3.593-12.943-8.897-18.421-15.29 1.675 10.965 3.734 18.95 9.317 27.35-5.776-1.122-8.784-3.595-11.978-7.415-5.606.317-10.876.726-16.146 1.325C1.546 88.651-1.992 124.5-4.609 160.41a2360 2360 0 0 0-1.043 14.828c1.269 1.02 4.199 1.524 5.404 1.795 19.162 4.644 38.598 8.63 58.14 11.993l3.634-21.114c-30.516-2.815-49.934-55.024-12.896-80.78l-6.896 2.405c.083-5.148 2.75-11.133 5.68-15.856 5.844-9.158 18.05-14.626 32.713-13.865l1.598-9.282c-4.564-15.438-11.79-23.993-23.13-36.044z"/><path fill="#7d5dc2" d="M124.783 74.65c8.038-6.056 12.68-12.888 17.924-22.664.318 5.987-1.254 13.444-4.156 19.679-4.287 2.533-7.95 3.858-13.768 2.985m-10.936-4.896c3.366.58 5.638 3.792 5.059 7.156s-3.793 5.632-7.16 5.052c-3.365-.579-5.637-3.791-5.058-7.155.578-3.363 3.793-5.632 7.159-5.053m19.892 17.564a4.303 4.303 0 0 1 3.51 4.964 4.304 4.304 0 0 1-4.968 3.507 4.304 4.304 0 0 1-3.51-4.966 4.304 4.304 0 0 1 4.968-3.505M96.221 62.713c8.703-6.005 15.668-22.795 19.315-38.393 4.493 11.932 6.074 24.004 4.73 35.925-8.449 2.843-13.915 3.09-24.045 2.468"/><path fill="#9478cf" d="M22.584 63.156c5.549.954 9.266 6.211 8.312 11.755-.954 5.543-6.214 9.255-11.763 8.3S9.868 77 10.823 71.456c.953-5.543 6.213-9.255 11.761-8.3M10.806 92.808a4.09 4.09 0 0 1 3.33 4.71 4.09 4.09 0 0 1-4.712 3.326 4.09 4.09 0 0 1-3.33-4.71 4.09 4.09 0 0 1 4.712-3.326"/><path fill="#d3e8ef" d="M77.627 78.27c23.876 4.11 39.904 26.78 35.799 50.635s-26.789 39.865-50.665 35.756-39.904-26.779-35.799-50.635 26.79-39.864 50.665-35.755"/><path fill="#fff" d="M29.78 104.377c6.564-15.576 21.722-26.083 38.681-26.723 18.096 1.703 30.347 16.669 27.426 33.642-2.942 17.097-20.201 29.743-38.522 28.225s-30.81-16.589-27.868-33.686c.086-.498.172-.996.289-1.489z"/><path fill="#ea4e64" d="M86.324 107.181c13.464 2.317 22.499 15.094 20.184 28.548s-15.101 22.476-28.566 20.159-22.499-15.094-20.183-28.548 15.1-22.476 28.564-20.159"/><path fill="#ec6277" d="M86.326 107.181a24.6 24.6 0 0 1 9.61 3.834l-.049.281c-2.867 16.661-19.32 29.093-37.154 28.3a24.6 24.6 0 0 1-.998-12.292c2.315-13.454 15.1-22.476 28.565-20.159z"/><path fill="#232323" d="M84.854 115.715c8.728 1.502 14.618 9.794 13.112 18.545-1.5 8.72-9.797 14.603-18.557 13.096-8.727-1.502-14.617-9.794-13.111-18.546 1.5-8.719 9.797-14.603 18.556-13.095"/><path fill="#323232" d="M84.854 115.715a16.17 16.17 0 0 1 8.251 4.081c-4.765 9.601-14.274 16.75-25.263 19.06a16 16 0 0 1-1.544-10.046c1.5-8.719 9.797-14.603 18.556-13.095"/><path fill="#fff" d="M68.006 110.314a10.105 10.105 0 0 1 8.258 11.682 10.106 10.106 0 0 1-11.688 8.25c-5.517-.95-9.208-6.17-8.26-11.682a10.106 10.106 0 0 1 11.69-8.25"/><path fill="#6f4bbb" d="M15.922 132.487c13.45-4.676 29.953 10.382 25.28 29.329-11.123-5.665-21.876-18.899-25.28-29.329"/><path fill="#a58dd4" d="M15.918 132.487c11.12 2.138 22.407 10.589 25.28 29.329-13.779-4.039-24.996-16.999-25.28-29.329"/><path fill="#7d5dc2" d="M18.99 149.528c1.749-.277 9.39 1.199 9.868 2.146.577 1.125-2.381 6.004-5.11 8.997-2.445-2.761-4.216-6.273-4.758-11.143"/><path fill="#fff" d="M17.066 147.274c1.749-.277 9.39 1.198 9.868 2.146.577 1.126-2.38 6.004-5.11 8.997-2.446-2.761-4.216-6.273-4.758-11.143"/><path fill="#6f4bbb" d="M19.806 144.987c-1.346 10.99 11.03 23.926 25.202 22.324.206 3.275-2.297 4.767-4.56 4.859-12.436-1.017-22.89-10.769-25.112-21.347-.625-2.898 1.226-6.01 4.465-5.806zm-5.814 20.001c2.267 6.964 7.057 10.834 12.714 12.834-8.928 2.279-15.407-3.902-12.714-12.834"/><path fill="#9478cf" d="M19.303 167.508c6.001 4.848 12.15 7.157 19.568 7.695-5.916 2.671-16.484 1.236-19.568-7.695"/><path fill="#5f3ea7" d="M94.673 68.57c-9.427-25.414-46.933-18.015-47.848 8.57 11.329-13.058 29.125-14.838 47.848-8.57"/><path fill="#6f4bbb" d="M94.676 68.568C89.347 54.216 73.564 50.634 61.698 56c-.582 3.01-.028 5.383 1.257 7.432 9.356-2.72 20.93-2.46 31.753 5.143zm54.926 100.006c14.027 2.413 23.65 15.677 21.228 29.754-2.422 14.076-15.895 23.365-29.952 20.946-14.027-2.414-23.65-15.677-21.228-29.754 2.422-14.076 15.895-23.365 29.952-20.946"/><path fill="#9478cf" d="M148.969 172.281c12.062 2.075 20.183 13.445 18.13 25.373-2.052 11.928-13.506 19.928-25.569 17.852s-20.183-13.444-18.131-25.372c2.053-11.928 13.507-19.929 25.57-17.853"/><path fill="#a58dd4" d="M148.97 172.281a22.22 22.22 0 0 1 17.511 15.359c-1.161 11.407-16.369 17.352-24.862 11.882-6.163-4.845-9.58-12.775-8.171-20.966a21 21 0 0 1 1.055-3.891 22.22 22.22 0 0 1 14.436-2.389z"/><path fill="#2b3039" d="M136.911 189.025c-.493-3.291 11.804-5.183 12.327-1.887l5.57 36.454c.492 3.292-11.804 5.183-12.328 1.888z"/><path fill="#5f3ea7" d="M154.185 188.409c-5.034 2.019-9.314 4.137-12.878 8.814 3.082 5.404 7.774 8.905 13.508 9.154 5.568-4.941 4.304-11.956-.662-17.973z"/><path fill="#6f4bbb" d="M156.376 196.867c-.343-2.111-1.242-4.157-2.522-6.237-3.876 1.641-7.193 3.571-9.98 6.715 2.388.668 6.272.663 12.507-.51z"/><path fill="#5f3ea7" d="M132.186 200.241c4.52-.345 8.503-.364 12.906 1.836-.312 5.173-2.508 9.541-6.696 11.867-6.012-1.612-7.657-7.346-6.184-13.666z"/><path fill="#393f4c" d="M139.546 105.406c-23.322-2.666-44.398 14.068-47.06 37.37-2.663 23.302 14.092 44.366 37.414 47.033 23.321 2.666 44.397-14.068 47.059-37.37s-14.092-44.366-37.413-47.033"/><path fill="#d3e8ef" d="M138.97 110.63c-20.428-2.329-38.899 12.321-41.229 32.761-2.325 20.411 12.343 38.871 32.8 41.204 20.428 2.329 38.899-12.32 41.229-32.761 2.325-20.41-12.342-38.871-32.8-41.204"/><path fill="#fff" d="M159.529 170.571a33.7 33.7 0 0 0 8.812-19.133c1.673-14.751-6.41-28.391-19.15-34.366a5941 5941 0 0 1-9.898 37.191c4.183 2.548 14.73 10.263 20.267 16.314zm-21.791-55.954c-17.783-2.034-33.842 10.722-35.841 28.495-.273 2.518-.28 4.986.014 7.377.023-.509.083-1.044.143-1.578 2.357-20.597 20.98-35.382 41.599-33.051l.156.026a33.4 33.4 0 0 0-6.04-1.264z"/><path fill="#999" d="M100.043 161.168a40 40 0 0 0 1.625 3.614l13.393-13.118 23.152 14.661 19.596-27.346 14.016 5.266a40 40 0 0 0-.622-4.211l-14.739-5.551-19.219 26.833-22.659-14.352-14.548 14.234z"/><path fill="#1ec185" d="M115.725 141.677c4.219.469 7.22 4.288 6.758 8.473-.47 4.215-4.291 7.214-8.479 6.75-4.22-.469-7.221-4.289-6.758-8.474.469-4.216 4.29-7.214 8.479-6.749"/><path fill="#ea4e64" d="M158.035 129.109c4.22.47 7.221 4.289 6.758 8.473-.469 4.217-4.29 7.215-8.479 6.751-4.219-.47-7.22-4.29-6.758-8.474.47-4.216 4.291-7.214 8.479-6.75"/><path fill="#ff893a" d="M138.607 156.197c4.219.469 7.22 4.288 6.757 8.473-.469 4.216-4.29 7.214-8.478 6.749-4.22-.469-7.221-4.288-6.758-8.473.469-4.217 4.29-7.214 8.479-6.749"/></svg>
